!!!!SEGMENT: pl-kk--kk-i-277--001-005_anonim--rorate-caeli-mittit-ad-virginem.krn
!!!cenid: 16xx:1077
!!!COM: Anonim
!!!COM-rismid: pe30004985
!!!CDT:
!!!CNT:
!!!OPR: Rorate caeli
!!!OTL: Mittit ad virginem
!!!OMV: 005
!!!PDT:
!!!AGN: Sacred
!!!SMS-siglum: PL-Kk
!!!SMS-shelfmark: Kk.I.277
!!!SMS-shelfwork: 001-005 M
!!!SMS-variant:
!!!SMS-altvar:
!!!NIFC-rismid: 1001147186
!!!URL-scan: http://repozytorium.nifc.pl/skany/pl-kk-nut--i-277
!!!ONB-nifc: UWAGA: Rorate 1mi officii od str. 1. Części: 1. Rorate caeli (Rorate caeli + Benedixisti + Gloria patri), 2. Kyrie, 3. Tollite portas, 4. Alleluia, 5. Mittit ad virginem, 6. Ave Maria, 7. Sanctus, 8. Agnus Dei, 9. Ecce virgo, 10. Deo gratias
**kern	**text	**text
*I"[Tenore]	*	*
*I'[T]	*	*
*clefC4	*	*
*k[]	*	*
*C:	*	*
*M2/1	*	*
*met(C)	*	*
=1-	=1-	=1-
!LO:TX:t=P:problem:inicjał M przed kluczem	!	!
1C	Mit-	For-
1F	-tit	-tem
=2-	=2-	=2-
1F	ad	ex-
1G	Vir-	-pe-
=3-	=3-	=3-
1E	-gi-	-di-
1F,<	-ne(m)	-at
=4-	=4-	=4-
1G	non	pro
1A	quem-	no-
=5-	=5-	=5-
1B	-vis	-bis
1A	an-	nun-
=6-	=6-	=6-
1G	-ge-	-ti-
1F	-lu(m)	-um
=7-	=7-	=7-
1A	ſed	na-
1c	for-	-tu-
=8-	=8-	=8-
1B	-ti-	-rae
1A	-tu-	fa-
=9-	=9-	=9-
1G	-di-	-xi-
1F	-nem	-at.
!LO:LB:g=original	!	!
=10-	=10-	=10-
1E	ſu-	ut
*lig	*	*
1F	-um	prae-
=11-	=11-	=11-
1G	.	.
*Xlig	*	*
1D	ar-	-ju-
=12-	=12-	=12-
1E	-chan-	-di-
1D	-ge-	-ci-
=13-	=13-	=13-
1C	-lum	-um
1G	a-	in
=14-	=14-	=14-
1F	-ma-	par-
*lig	*	*
1G	.	tu
=15-	=15-	=15-
1A	.	.
*Xlig	*	*
1F	-tor	.
=16-	=16-	=16-
1F	ho-	Vir-
1E	.	.
=17-	=17-	=17-
1D	.	.
1E	-mi-	-gi-
=18-	=18-	=18-
0F;;	-nis	-nis
=19||	=19||	=19||
!LO:TX:a:t=P:problem:inicjał N przed 1A	!	!
1A	Na-	ſu-
1c	-tu-	-per-
=20-	=20-	=20-
1c	-ram	-bi-
!LO:PB:g=original	!	!
1B	ſu-	-en-
=21-	=21-	=21-
1A	-pe-	-ti-
1G	-rat	-um
=22-	=22-	=22-
1A	na-	ter-
1F	-t(us)	-rat
=23-	=23-	=23-
1B	Rex	faſ-
1A	glo-	-ti-
=24-	=24-	=24-
1G	-ri-	-gi-
1A,<	-ae	-a
=25-	=25-	=25-
1A	re-	col-
1c	-gnat	-la
=26-	=26-	=26-
1c	et	ſub-
1B	im-	-li-
=27-	=27-	=27-
1A	-pe-	-mi-
1G	-rat	-um
=28-	=28-	=28-
1A	et	cal-
1F	zy-	-cet
=29-	=29-	=29-
1B	-ma-	ui
1A	-ſco-	pro-
=30-	=30-	=30-
!LO:SIC:v:t=custos F	!	!
1G	-ri-	-pri-
!LO:LB:g=original	!	!
*lig	*	*
1F	-ae	-a
=31-	=31-	=31-
1E	.	.
*Xlig	*	*
1G	tol-	po-
=32-	=32-	=32-
1A	-lit	-tens
1F	de	in
=33-	=33-	=33-
1F	me-	prae-
1E	.	.
=34-	=34-	=34-
1D	.	.
1E	-di-	li-
=35-	=35-	=35-
0F;;	-o	-o
=36||	=36||	=36||
!LO:TX:t=P:problem:inicjał F przed 1C	!	!
1C	Fo-	E-
1D	-ras	-xi
=37-	=37-	=37-
1F	e-	qui
1F	-ij-	mit-
=38-	=38-	=38-
1E	-ci-	-te-
1G,<	-at	-ris
=39-	=39-	=39-
1E	mun-	haec
1F	-da-	do-
=40-	=40-	=40-
*lig	*	*
1E	-num	-na
1D	.	.
*Xlig	*	*
=41-	=41-	=41-
1E	prin-	diſ-
!LO:LB:g=original	!	!
1D	-ci-	-ſe-
=42-	=42-	=42-
1C	-pem	-re
1C	ma-	re-
=43-	=43-	=43-
1D	-trem-	-ve-
1F	-(que)	-la
=44-	=44-	=44-
1F	fa-	ve-
1E	-ci-	-te-
=45-	=45-	=45-
1G,<	-at	-ris
1G	ſe-	ve-
=46-	=46-	=46-
1A	-cum	-la-
1B	par-	-men
=47-	=47-	=47-
1A	-ti-	li-
1G	-ci-	-te-
=48-	=48-	=48-
*lig	*	*
1F	-pem	-rae
1E	.	.
*Xlig	*	*
=49-	=49-	=49-
1G	Pa-	Vir-
1A	-tris	-tu-
=50-	=50-	=50-
1F	Im-	-te
1F	-pe-	nun-
=51-	=51-	=51-
1E	.	.
1D	.	.
=52-	=52-	=52-
1E	.	.
0F;;	-rij.	-tij.
!LO:LB:g=original	!	!
=53||	=53||	=53||
.	.	.
!LO:TX:t=P:problem:inicjał A przed 1F i przed kluczem na początku pięciolinii	!	!
1F	ac-	Vir-
=54-	=54-	=54-
1c	-ce-	-go
1c	-de	ſuſ-
=55-	=55-	=55-
1d	nun-	-ci-
1B	-ti-	-pi-
=56-	=56-	=56-
1c	-a	-as
1d	dic	De-
=57-	=57-	=57-
1f	a-	-i
1c	-ve	de-
=58-	=58-	=58-
1d	co-	-po-
1B	-mi-	-ſi-
=59-	=59-	=59-
1c,<	-n(us)	-tum
1d	dic	in
=60-	=60-	=60-
1e	ple-	quo
1f	-na	per-
=61-	=61-	=61-
1e	gra-	-fi-
1d	-ti-	-ci-
=62-	=62-	=62-
1c	-a	-as
1A	dic	ca-
!LO:LB:g=original	!	!
=63-	=63-	=63-
1c	te-	-ſtum
1d	-cum	pro-
=64-	=64-	=64-
1c	Do-	-po-
*lig	*	*
1B	.	.
=65-	=65-	=65-
1A	.	.
*Xlig	*	*
1G	-mi-	-ſi-
=66-	=66-	=66-
1F	-n(us)	-tum
1A	et	et
=67-	=67-	=67-
1c	dic	vo-
1B	ne	-tum
=68-	=68-	=68-
1A	ti-	te-
1G	.	.
=69-	=69-	=69-
1F	.	.
1E	.	.
=70-	=70-	=70-
0G	me-	-ne-
=71-	=71-	=71-
0F;;l	-as	-as.
=72||	=72||	=72||
!LO:TX:a:t=P:problem:inicjał A przed 1A	!	!
1A	au-	Con-
1G	-dit	-si-
=73-	=73-	=73-
1A	et	-li-
1B	ſuſ-	-an-
=74-	=74-	=74-
1A	-ci-	um
!LO:LB:g=original	!	!
1G,<	-pit	.
=75-	=75-	=75-
1A	pu-	hu-
1F	-el-	-ma-
=76-	=76-	=76-
1G	-la	-ni
1F	nun-	ge-
=77-	=77-	=77-
1E	.	.
1D	-ti-	.
=78-	=78-	=78-
1E	-um	-ris
1F,<	.	et
=79-	=79-	=79-
1A	cre-	De-
1c,<	-dit	-um
=80-	=80-	=80-
1d	et	.
1c	con-	for-
=81-	=81-	=81-
1B	-ci-	-ti-
1A,<	-pit	-um
=82-	=82-	=82-
1G	et	et
1A	pa-	Pa-
=83-	=83-	=83-
1G	-rit	-trem
1F	fi-	pos-
=84-	=84-	=84-
1G	-li-	-te-
1A	-um	-ris
=85-	=85-	=85-
*lig	*	*
1B	.	.
1A	.	.
!LO:LB:g=original	!	!
*Xlig	*	*
=86-	=86-	=86-
*lig	*	*
1c	ſed	in
1d	.	.
*Xlig	*	*
=87-	=87-	=87-
1c,<	.	.
1F	ad-	fi-
=88-	=88-	=88-
*lig	*	*
1G	-mi-	-de
1A	.	.
*Xlig	*	*
=89-	=89-	=89-
*lig	*	*
1B	-ra-	ſta-
1A	.	.
*Xlig	*	*
=90-	=90-	=90-
*lig	*	*
1G	-bi-	-bi-
1F	.	.
*Xlig	*	*
=91-	=91-	=91-
0F;;	-lem	-lem
=92||	=92||	=92||
!LO:TX:a:t=P:problem:inicjał Q przed 1A	!	!
1A	Qui	.
1G	no-	.
=93-	=93-	=93-
1A	-bis	.
1B	tri-	.
=94-	=94-	=94-
1A	-bu-	.
1G	-at	.
=95-	=95-	=95-
1A	pec-	.
1F	-ca-	.
=96-	=96-	=96-
1G	-ti	.
*lig	*	*
1F	ve-	.
=97-	=97-	=97-
1E	.	.
!LO:PB:g=original	!	!
*Xlig	*	*
*lig	*	*
1D	-ni-	.
=98-	=98-	=98-
1E	.	.
*Xlig	*	*
1F	-am	.
=99-	=99-	=99-
1F	re-	.
1c	-a-	.
=100-	=100-	=100-
1c	-tus	.
1d	de-	.
=101-	=101-	=101-
1B	-le-	.
1c	-at	.
=102-	=102-	=102-
1F	et	.
1G	do-	.
=103-	=103-	=103-
*lig	*	*
1A	-net	.
1B	.	.
*Xlig	*	*
=104-	=104-	=104-
1c	pa-	.
*lig	*	*
1B	.	.
=105-	=105-	=105-
1A	.	.
*Xlig	*	*
1G	-tri-	.
=106-	=106-	=106-
1A	-am	.
1c	in	.
=107-	=107-	=107-
*lig	*	*
1d	.	.
1c	.	.
*Xlig	*	*
=108-	=108-	=108-
1F	ar-	.
1G	-ce	.
!LO:LB:g=original	!	!
=109-	=109-	=109-
*lig	*	*
1F	ſy-	.
1E	.	.
*Xlig	*	*
=110-	=110-	=110-
1D	.	.
1E	-de-	.
=111-	=111-	=111-
0F	-rum	.
=112-	=112-	=112-
1F	a-	.
*lig	*	*
1E	.	.
=113-	=113-	=113-
1D	.	.
*Xlig	*	*
*lig	*	*
1E	.	.
=114-	=114-	=114-
1C	.	.
*Xlig	*	*
*lig	*	*
1G	.	.
=115-	=115-	=115-
1F	.	.
*Xlig	*	*
*lig	*	*
1G	.	.
=116-	=116-	=116-
1A	.	.
*Xlig	*	*
1B	.	.
=117-	=117-	=117-
*lig	*	*
1A	.	.
1G	.	.
*Xlig	*	*
=118-	=118-	=118-
*lig	*	*
1F	.	.
1E	.	.
*Xlig	*	*
=119-	=119-	=119-
0G	.	.
=120-	=120-	=120-
1F	-men.	.
[1F;;l	.	.
=121-	=121-	=121-
0F]	.	.
=-	=-	=-
*-	*-	*-
!!!RDF**kern: l = terminal long
!!!RDF**kern: > = above
!!!RDF**kern: < = below
!!!EED: Antoni Szymański
!!!EST: 2021-03-28
!!!ENC: Tomasz Grochalski
!!!END: 2021-03-14
